mimetypes/scalable/message-partial.svg

<svg width="48" version="1.1" xmlns="http://www.w3.org/2000/svg" height="48">
<path style="fill:#ecf0f1" id="rect4090" d="m 4.5351,5.6271 0,36.7458 38.9196,0 .0804,-36.7031 -12.672,-.0427 z "/>
<g style="fill-rule:evenodd">
<g id="g5">
<g style="stroke:none;stroke-linejoin:bevel;stroke-linecap:square;stroke-width:10" id="g7">
<path style="opacity:.3" id="path4171" d="m 10.34,15.358 26.977,0 0,20.254 -26.977,0 z"/>
<path style="opacity:.4" id="rect4168" d="m 10.64,15.658 26.177,0 0,19.354 -26.177,0 z"/>
<rect width="25.576384" x="10.940131" y="15.958463" height="18.553623" style="fill:#ecf0f1" id="rect4166"/>
</g>
<g style="fill:#bbc9d5" id="g12">
<path id="path4254" d="m 19.8047,25.4672 -8.8645,6.8967 0,1.922 25.5764,0 0,-1.922 -8.8645,-6.8967 -3.9237,3.0527 z "/>
<path id="path4251" d="m 10.9401,15.9585 0,2.5511 12.7882,10.2045 12.7882,-10.2045 0,-2.5511 z "/>
</g>
<g style="fill:#fff" id="g16">
<path id="path4238" d="m 20.0953,25.8151 -9.1552,7.3055 0,1.3915 25.5764,0 0,-1.3915 -9.1552,-7.3055 -3.633,2.899 z "/>
<path id="path4219" d="m 10.9401,15.9585 0,1.3915 12.7882,10.2045 12.7882,-10.2045 0,-1.3915 z "/>
</g>
</g>
<rect width="34.054192" x="6.9510002" y="23.354895" height="4.2831044" style="fill:#bfccd7;stroke:none" id="rect3011"/>
</g>
</svg>

<svg width="48" version="1.1" xmlns="http://www.w3.org/2000/svg" height="48">
<path style="fill:#ecf0f1" id="rect4090" d="M 3,3 V 44.999886 L 45,45 V 3 Z"/>
<g style="fill-rule:evenodd">
<g id="g5" transform="translate(0.1715,-1.485)">
<g style="stroke:none;stroke-linejoin:bevel;stroke-linecap:square;stroke-width:10" id="g7">
<path style="opacity:.3" id="path4171" d="M 10.34,15.358 H 37.317 V 35.612 H 10.34 Z"/>
<path style="opacity:.4" id="rect4168" d="M 10.64,15.658 H 36.817 V 35.012 H 10.64 Z"/>
<rect width="25.576384" x="10.940131" y="15.958463" height="18.553623" style="fill:#ecf0f1" id="rect4166"/>
</g>
<g style="fill:#bbc9d5" id="g12">
<path id="path4254" d="m 19.8047,25.4672 -8.8645,6.8967 v 1.922 h 25.5764 v -1.922 l -8.8645,-6.8967 -3.9237,3.0527 z"/>
<path id="path4251" d="m 10.9401,15.9585 v 2.5511 L 23.7283,28.7141 36.5165,18.5096 v -2.5511 z"/>
</g>
<g style="fill:#fff" id="g16">
<path id="path4238" d="m 20.0953,25.8151 -9.1552,7.3055 v 1.3915 h 25.5764 v -1.3915 l -9.1552,-7.3055 -3.633,2.899 z"/>
<path id="path4219" d="M 10.9401,15.9585 V 17.35 L 23.7283,27.5545 36.5165,17.35 v -1.3915 z"/>
</g>
</g>
<rect width="34.054192" x="6.9729042" y="21.858448" height="4.2831044" style="fill:#bfccd7;stroke:none" id="rect3011"/>
</g>
</svg>
